icons/actions/24/view-catalog.svg

<?xml version="1.0"?>
<!-- Created with Inkscape (http://www.inkscape.org/) -->
<svg xmlns:dc="http://purl.org/dc/elements/1.1/" xmlns:cc="http://creativecommons.org/ns#" xmlns:rdf="http://www.w3.org/1999/02/22-rdf-syntax-ns#" xmlns:svg="http://www.w3.org/2000/svg" xmlns="http://www.w3.org/2000/svg" xmlns:sodipodi="http://sodipodi.sourceforge.net/DTD/sodipodi-0.dtd" xmlns:inkscape="http://www.inkscape.org/namespaces/inkscape" width="24" height="24" id="svg3869" version="1.1" inkscape:version="0.91 r13725" sodipodi:docname="view-catalog.svg">
  <defs id="defs3871">
    <style type="text/css" id="current-color-scheme">
      .ColorScheme-Text {
        color:#4d4d4d;
      }
      .ColorScheme-Background {
        color:#eff0f1;
      }
      .ColorScheme-Highlight {
        color:#3daee9;
      }
      .ColorScheme-ViewText {
        color:#31363b;
      }
      .ColorScheme-ViewBackground {
        color:#fcfcfc;
      }
      .ColorScheme-ViewHover {
        color:#93cee9;
      }
      .ColorScheme-ViewFocus{
        color:#3daee9;
      }
      .ColorScheme-ButtonText {
        color:#31363b;
      }
      .ColorScheme-ButtonBackground {
        color:#eff0f1;
      }
      .ColorScheme-ButtonHover {
        color:#93cee9;
      }
      .ColorScheme-ButtonFocus{
        color:#3daee9;
      }
      </style>
    <linearGradient id="linearGradient4290-48">
      <stop id="stop4292-0" offset="0" style="stop-color:#a5a5a5;stop-opacity:1;"/>
      <stop id="stop4294-0" offset="1" style="stop-color:#f5f2f5;stop-opacity:1;"/>
    </linearGradient>
    <inkscape:perspective id="perspective4146-9" inkscape:persp3d-origin="12 : 8 : 1" inkscape:vp_z="24 : 12 : 1" inkscape:vp_y="0 : 1000 : 0" inkscape:vp_x="0 : 12 : 1" sodipodi:type="inkscape:persp3d"/>
    <inkscape:perspective id="perspective4146" inkscape:persp3d-origin="12 : 8 : 1" inkscape:vp_z="24 : 12 : 1" inkscape:vp_y="0 : 1000 : 0" inkscape:vp_x="0 : 12 : 1" sodipodi:type="inkscape:persp3d"/>
    <inkscape:perspective sodipodi:type="inkscape:persp3d" inkscape:vp_x="0 : 12 : 1" inkscape:vp_y="0 : 1000 : 0" inkscape:vp_z="24 : 12 : 1" inkscape:persp3d-origin="12 : 8 : 1" id="perspective4146-9-1"/>
    <inkscape:perspective sodipodi:type="inkscape:persp3d" inkscape:vp_x="0 : 12 : 1" inkscape:vp_y="0 : 1000 : 0" inkscape:vp_z="24 : 12 : 1" inkscape:persp3d-origin="12 : 8 : 1" id="perspective4146-96"/>
  </defs>
  <sodipodi:namedview id="base" pagecolor="#ffffff" bordercolor="#666666" borderopacity="1.0" inkscape:pageopacity="0.0" inkscape:pageshadow="2" inkscape:zoom="22.627416" inkscape:cx="5.4926209" inkscape:cy="10.264796" inkscape:document-units="px" inkscape:current-layer="layer1" showgrid="true" fit-margin-top="0" fit-margin-left="0" fit-margin-right="0" fit-margin-bottom="0" inkscape:window-width="1366" inkscape:window-height="709" inkscape:window-x="-4" inkscape:window-y="0" inkscape:window-maximized="1" inkscape:showpageshadow="false" inkscape:snap-bbox="true" inkscape:object-nodes="true">
    <inkscape:grid type="xygrid" id="grid4132"/>
    <sodipodi:guide position="4,18" orientation="18,0" id="guide4138"/>
    <sodipodi:guide position="5,3" orientation="0,18" id="guide4140"/>
    <sodipodi:guide position="20,2.0000174" orientation="-18,0" id="guide4142"/>
    <sodipodi:guide position="2,21" orientation="0,-18" id="guide4144"/>
    <sodipodi:guide position="3,19.000017" orientation="16,0" id="guide4146"/>
    <sodipodi:guide position="2,4" orientation="0,16" id="guide4148"/>
    <sodipodi:guide position="21,20" orientation="-16,0" id="guide4150"/>
    <sodipodi:guide position="2,20" orientation="0,-16" id="guide4152"/>
  </sodipodi:namedview>
  <metadata id="metadata3874">
    <rdf:RDF>
      <cc:Work rdf:about="">
        <dc:format>image/svg+xml</dc:format>
        <dc:type rdf:resource="http://purl.org/dc/dcmitype/StillImage"/>
        <dc:title/>
      </cc:Work>
    </rdf:RDF>
  </metadata>
  <g inkscape:label="Capa 1" inkscape:groupmode="layer" id="layer1" transform="translate(-326,-532.3622)">
    <g transform="translate(-94.71429,7.57146)" id="layer1-4" inkscape:label="Capa 1">
      <path id="rect4145" transform="translate(421.71429,525.79074)" d="M 3,3 3,19 4,19 9,19 9,18 4,18 4,4 14,4 14,8 15,8 15,3 4,3 3,3 Z M 5,5 5,9 9,9 9,5 5,5 Z m 5,0 0,1 3,0 0,-1 -3,0 z m 0,2 0,1 3,0 0,-1 -3,0 z m 0,2 0,1 0,9 1,0 8,0 0,-2 0,-8 -8,0 -1,0 z m 1,1 7,0 0,4 -1,-1 -2,2 -1,-1 -3,3 0,-7 z m -6,1 0,1 4,0 0,-1 -4,0 z m 8,0 c -0.554,0 -1,0.446 -1,1 0,0.554 0.446,1 1,1 0.554,0 1,-0.446 1,-1 0,-0.554 -0.446,-1 -1,-1 z m -8,2 0,1 4,0 0,-1 -4,0 z m 0,2 0,1 4,0 0,-1 -4,0 z" style="opacity:1;fill:currentColor;fill-opacity:1;stroke:none;stroke-width:0.1;stroke-miterlimit:4;stroke-dasharray:none;stroke-opacity:1" inkscape:connector-curvature="0" class="ColorScheme-Text"/>
    </g>
  </g>
</svg>

<svg xmlns="http://www.w3.org/2000/svg" viewBox="0 0 24 24">
  <defs id="defs3051">
    <style type="text/css" id="current-color-scheme">
      .ColorScheme-Text {
        color:#4d4d4d;
      }
      </style>
  </defs>
  <a transform="translate(1,1)">
 <path 
    style="fill:currentColor;fill-opacity:1;stroke:none" 
    d="M 3 3 L 3 19 L 4 19 L 9 19 L 9 18 L 4 18 L 4 4 L 14 4 L 14 8 L 15 8 L 15 3 L 4 3 L 3 3 z M 5 5 L 5 9 L 9 9 L 9 5 L 5 5 z M 10 5 L 10 6 L 13 6 L 13 5 L 10 5 z M 10 7 L 10 8 L 13 8 L 13 7 L 10 7 z M 10 9 L 10 10 L 10 19 L 11 19 L 19 19 L 19 17 L 19 9 L 11 9 L 10 9 z M 11 10 L 18 10 L 18 14 L 17 13 L 15 15 L 14 14 L 11 17 L 11 10 z M 5 11 L 5 12 L 9 12 L 9 11 L 5 11 z M 13 11 C 12.446 11 12 11.446 12 12 C 12 12.554 12.446 13 13 13 C 13.554 13 14 12.554 14 12 C 14 11.446 13.554 11 13 11 z M 5 13 L 5 14 L 9 14 L 9 13 L 5 13 z M 5 15 L 5 16 L 9 16 L 9 15 L 5 15 z "
	class="ColorScheme-Text"
    />  
 </a>
</svg>
